X:1
T:A Year of Precious Blessings
T:A Year of Precious Blessings
T:Ira Allen Sankey
T:Frances Jane (Fanny) Crosby, 1907
T:Public Domain Courtesy of the Cyber Hymnal™
T:Public Domain Courtesy of the Cyber Hymnal™
C:Ira Allen Sankey
Z:Public Domain
Z:Courtesy of the Cyber Hymnal™
%%score ( 1 2 ) ( 3 4 )
L:1/8
Q:1/4=110
M:4/4
K:Db
V:1 treble 
V:2 treble 
V:3 bass 
V:4 bass 
V:1
 (DE) | [DF]2 [FA]2 [=Ec]3 [EB] | [FA]2 [DF]4 (DE) | [DF]2 [DG]2 [CE]3 D | D6 (DE) | %5
w: 1.~A *|year of pre- cious|bless- ings And *|glor- ious vic- tories|won, Of *|
w: 2.~Thou *|mas- ter of as-|sem- blies In *|might- y power de-|scend, Be- *|
w: 3.~O *|Church of God’s a-|noint- ed, March *|on the world to|win, Lead *|
 [DF]2 [FA]2 [=Ec]3 [EB] | [FA]2 [DF]4 (AB) | [Fc]2 (BA) [FA]2 [=E=G]2 | F6 [CF]2 | %9
w: ear- nest work pro-|gress- ing, Its *|on- ward * course has|run; To|
w: hold our glad re-|un- ion, Con- *|duct it * to the|end; In-|
w: forth thy ranks by|mil- lions A- *|gainst the * hosts of|sin, Till|
 [CG]3 [CG] [CF]2 [CE]2 | [DB]2 [DA]4 [DF]2 | [CG]3 [CG] [Gc]2 [GB]2 | [FA]6 [FA]2 | %13
w: Thee, O God, our|ref- uge, Whose|good- ness crowns our|days, With-|
w: spire our hearts with|cour- age And|deep- er love for|Thee, That|
w: at His throne in|glo- ry, Where|an- gels pros- trate|fall, One|
 [Fd]3 [Fd] [Fe]2 [Fd]2 | [Gd]2 [GB]4 [GB]2 | [DA]2 ([CG][DF]) [CF]2 [CE]2 | [DA]6 [CA]2 | %17
w: in Thy earth- ly|tem- ple, We|lift our * souls in|praise; With-|
w: all, Thy name may|hon- or, Wher-|e’er our * field may|be, That|
w: hal- le- lu- jah|cho- rus Shall|crown Him * Lord of|all, One|
 [Dd]3 [Fd] [Fe]2 [Fd]2 | [Gd]2 [GB]4 [=EB]2 | [FA]2 ([EG][DF]) F2 [CE]2 | D6 |] %21
w: in Thy earth- ly|tem- ple, We|lift our * souls in|praise.|
w: all, Thy name may|hon- or, Wher-|e’er our * field may|be.|
w: hal- le- lu- jah|cho- rus Shall|crown Him * Lord of|all.|
V:2
 D2 | x8 | x6 D2 | x7 D | D6 D2 | x8 | x6 F2 | x2 F2 x4 | F6 x2 | x8 | x8 | x8 | x8 | x8 | x8 | %15
 x8 | x8 | x8 | x8 | x4 (DB,) x2 | D6 |] %21
V:3
 (F,G,) | [D,A,]2 [D,A,]2 [D,=G,]3 [D,G,] | [D,A,]2 [D,A,]4 (F,G,) | %3
 [D,A,]2 [G,,B,]2 [A,,G,]3 [D,F,] | [D,F,]6 (F,G,) | [D,A,]2 [D,A,]2 [D,=G,]3 [D,G,] | %6
 [D,A,]2 [D,A,]4 (A,=G,) | [C,A,]2 (DC) [C,C]2 [C,B,]2 | [F,A,]6 [F,A,]2 | %9
 [E,A,]3 [E,B,] A,2 [G,A,]2 | [F,A,]2 [F,A,]4 [D,A,]2 | [E,A,]3 [E,A,] [A,,A,E]2 [A,,A,C]2 | %12
 [D,D]6 [D,D]2 | [D,A,]3 [D,A,] [D,_C]2 [D,C]2 | [G,B,]2 [G,D]4 [G,D]2 | [F,D]2 B,2 A,2 [G,A,]2 | %16
 [F,A,]6 [E,G,]2 | [D,F,]3 [D,A,] [D,_C]2 [D,C]2 | [G,B,]2 [G,D]4 [=G,D]2 | %19
 [A,D]2 A,2 [A,,A,]2 [A,,G,]2 | [D,F,]6 |] %21
V:4
 D,2 | x8 | x6 D,2 | x8 | x6 D,2 | x8 | x6 D,2 | x2 C,2 x4 | x8 | x4 A,2 x2 | x8 | x8 | x8 | x8 | %14
 x8 | x2 (E,D,) A,2 x2 | x8 | x8 | x8 | x2 A,2 x4 | x6 |] %21

